apps/site/public/icons/companies/cargon_light.svg

<svg xmlns="http://www.w3.org/2000/svg" width="1485" height="374" viewBox="0 0 1485 374" fill="none"><path d="M123.324 101.414C143.284 101.414 160.12 109.056 174.723 124.792L216.362 82.9576C191.048 54.592 160.055 40.667 123.263 40.667C88.6993 40.667 59.3661 52.3246 35.4653 75.3159C12.0035 98.241 0 126.669 0 160.865C0 195.121 12.0035 223.424 35.5167 246.411C59.4312 269.399 88.7644 280.67 123.314 280.67C160.11 280.67 191.1 266.682 216.417 238.254L174.723 196.416C160.12 212.219 143.284 219.86 123.324 219.86C91.316 219.86 66.1258 195.131 66.1258 160.799C66.1258 126.669 90.9319 101.414 123.324 101.414Z" fill="#206FB7"></path><path d="M473.613 195.132V47.8013H407.553V77.5252C400.916 57.7104 374.707 43.7227 341.043 43.7227C309.604 43.7227 282.887 54.9902 261.648 77.9815C240.799 100.516 230.096 128.429 230.096 161.326C230.096 194.679 240.727 222.592 261.648 245.58C282.887 268.115 309.539 279.337 341.043 279.337C376.114 279.337 400.474 268.523 415.074 246.44C418.197 255.896 424.85 263.99 435.034 270.724C444.345 276.164 456.716 278.822 471.387 278.822C484.269 278.822 494.023 277.526 501.101 275.255V219.353C497.15 219.806 493.213 220.259 490.072 220.259C478.14 220.388 473.613 213.07 473.613 195.132ZM394.283 201.868C383.192 212.666 369.35 218.057 353.026 218.057C337.085 218.057 323.758 212.746 312.663 201.868C301.633 190.597 296.276 177.139 296.276 161.326C296.276 145.513 301.633 132.069 312.663 121.24C323.758 109.973 337.085 104.522 353.026 104.522C369.416 104.522 383.206 109.962 394.283 121.24C405.766 132.055 411.565 145.524 411.565 161.326C411.565 177.129 405.831 190.597 394.283 201.868Z" fill="#206FB7"></path><path d="M596.477 78.9411V47.8553H530.416V274.843H596.477V164.048C596.477 126.683 618.666 104.987 656.354 104.987C663.805 105 671.238 105.759 678.543 107.254V44.1634C671.468 43.3205 665.665 42.8677 661.265 42.8677C630.594 42.8677 606.693 55.9498 596.477 78.9411Z" fill="#206FB7"></path><path d="M868.386 77.5252C861.688 57.7104 835.548 43.7227 801.811 43.7227C770.372 43.7227 743.783 54.9902 722.423 77.9815C701.633 100.516 690.984 128.429 690.984 161.326C690.984 193.77 701.616 221.234 722.423 243.25C743.721 265.395 770.31 276.147 801.811 276.147C834.207 276.147 860.858 264.946 870.169 248.69V253.608C870.169 277.509 863.537 294.154 850.659 303.22C839.561 310.859 824.001 314.864 804.939 314.864C781.47 314.864 758.832 307.675 736.193 293.301L704.758 341.868C734.471 363.044 770.821 373.911 814.247 373.911C846.639 373.911 873.678 365.298 895.421 347.75C925.969 323.85 934.447 289.661 934.447 236.942V47.8013H868.386V77.5252ZM855.059 200.97C843.961 211.783 830.23 217.202 813.866 217.225C797.86 217.225 784.529 211.784 773.5 200.97C762.402 190.155 757.038 177.139 757.038 161.337C757.038 145.534 762.392 132.079 773.5 121.251C784.529 109.983 797.85 104.532 813.866 104.532C830.249 104.532 843.961 109.973 855.059 121.251C866.534 132.066 872.337 145.534 872.337 161.337C872.337 177.139 866.534 190.082 855.059 200.97Z" fill="#206FB7"></path><path d="M1481.23 218.035H1476.78C1465.74 218.035 1462.17 211.765 1462.17 194.204V137.031C1462.17 77.9694 1431.18 42.8677 1377.55 42.8677C1347.39 42.8677 1322.52 56.3399 1313.21 76.2209V47.8553H1247.15V274.843H1313.22V147.33C1313.22 120.779 1331.46 102.323 1356.26 102.323C1382.47 102.323 1396.18 118.578 1396.18 145.129V212.737C1396.18 255.926 1415.69 277.563 1455.17 277.563C1468.94 277.563 1478.7 276.657 1484.06 274.386V217.659L1481.23 218.035Z" fill="#206FB7"></path><path d="M1166.9 40.5996L1136.61 93.5761C1144.39 100.34 1150.62 108.734 1154.89 118.181C1159.17 127.628 1161.37 137.902 1161.36 148.298C1161.36 188.126 1129.6 220.507 1090.39 220.507C1051.17 220.507 1019.41 188.188 1019.41 148.298C1019.39 137.98 1021.56 127.779 1025.78 118.391C1029.99 109.003 1036.15 100.649 1043.84 93.9L1013.66 40.7285C980.817 64.8866 959.52 104.001 959.52 148.298C959.52 221.737 1018.12 281.188 1090.37 281.188C1162.62 281.188 1221.16 221.67 1221.16 148.298C1221.17 104.001 1199.74 64.7577 1166.9 40.5996Z" fill="#206FB7"></path><path d="M1115.65 137.927C1115.57 144.66 1112.88 151.09 1108.17 155.823C1103.45 160.557 1097.09 163.211 1090.46 163.211C1083.83 163.211 1077.47 160.557 1072.75 155.823C1068.03 151.09 1065.35 144.66 1065.27 137.927V25.708C1065.26 11.5287 1076.55 0 1090.45 0C1093.77 0.00410284 1097.05 0.672724 1100.11 1.96758C1103.18 3.26244 1105.96 5.15811 1108.3 7.54606C1110.64 9.93401 1112.49 12.7673 1113.75 15.8838C1115.01 19.0003 1115.66 22.3388 1115.65 25.708V137.927Z" fill="#6EC05D"></path></svg>

<svg xmlns="http://www.w3.org/2000/svg" width="1485" height="374" fill="none" viewBox="0 0 1485 374"><path fill="#206fb7" d="M123.324 101.414c19.96 0 36.796 7.642 51.399 23.378l41.639-41.834c-25.314-28.366-56.307-42.291-93.099-42.291-34.564 0-63.897 11.658-87.798 34.649C12.004 98.24 0 126.669 0 160.865c0 34.256 12.004 62.559 35.517 85.546 23.914 22.988 53.247 34.259 87.797 34.259 36.796 0 67.786-13.988 93.103-42.416l-41.694-41.838c-14.603 15.803-31.439 23.444-51.399 23.444-32.008 0-57.198-24.729-57.198-59.061 0-34.13 24.806-59.385 57.198-59.385m350.289 93.718V47.802h-66.06v29.723c-6.637-19.815-32.846-33.802-66.51-33.802-31.439 0-58.156 11.267-79.395 34.259-20.849 22.534-31.552 50.447-31.552 83.344 0 33.353 10.631 61.266 31.552 84.254 21.239 22.535 47.891 33.757 79.395 33.757 35.071 0 59.431-10.814 74.031-32.897q4.684 14.184 19.96 24.284c9.311 5.44 21.682 8.098 36.353 8.098 12.882 0 22.636-1.296 29.714-3.567v-55.902c-3.951.453-7.888.906-11.029.906-11.932.129-16.459-7.189-16.459-25.127m-79.33 6.736c-11.091 10.798-24.933 16.189-41.257 16.189-15.941 0-29.268-5.311-40.363-16.189-11.03-11.271-16.387-24.729-16.387-40.542s5.357-29.257 16.387-40.086c11.095-11.267 24.422-16.718 40.363-16.718 16.39 0 30.18 5.44 41.257 16.718 11.483 10.815 17.282 24.284 17.282 40.086 0 15.803-5.734 29.271-17.282 40.542M596.477 78.941V47.855h-66.061v226.988h66.061V164.048c0-37.365 22.189-59.061 59.877-59.061 7.451.013 14.884.772 22.189 2.267v-63.09c-7.075-.843-12.878-1.296-17.278-1.296-30.671 0-54.572 13.082-64.788 36.073m271.909-1.416c-6.698-19.815-32.838-33.802-66.575-33.802-31.439 0-58.028 11.267-79.388 34.259-20.79 22.534-31.439 50.447-31.439 83.344 0 32.444 10.632 59.908 31.439 81.924 21.298 22.145 47.887 32.897 79.388 32.897 32.396 0 59.047-11.201 68.358-27.457v4.918c0 23.901-6.632 40.546-19.51 49.612-11.098 7.639-26.658 11.644-45.72 11.644-23.469 0-46.107-7.189-68.746-21.563l-31.435 48.567c29.713 21.176 66.063 32.043 109.489 32.043 32.392 0 59.431-8.613 81.174-26.161 30.548-23.9 39.026-58.089 39.026-110.808V47.802h-66.061zM855.059 200.97q-16.647 16.22-41.193 16.255c-16.006 0-29.337-5.441-40.366-16.255-11.098-10.815-16.462-23.831-16.462-39.633s5.354-29.258 16.462-40.086c11.029-11.268 24.35-16.719 40.366-16.719 16.383 0 30.095 5.441 41.193 16.719 11.475 10.815 17.278 24.283 17.278 40.086s-5.803 28.745-17.278 39.633m626.171 17.065h-4.45c-11.04 0-14.61-6.27-14.61-23.831v-57.173c0-59.062-30.99-94.163-84.62-94.163-30.16 0-55.03 13.472-64.34 33.353V47.855h-66.06v226.988h66.07V147.33c0-26.551 18.24-45.007 43.04-45.007 26.21 0 39.92 16.255 39.92 42.806v67.608c0 43.189 19.51 64.826 58.99 64.826 13.77 0 23.53-.906 28.89-3.177v-56.727zM1166.9 40.6l-30.29 52.976c7.78 6.764 14.01 15.158 18.28 24.605a72.8 72.8 0 0 1 6.47 30.117c0 39.828-31.76 72.209-70.97 72.209-39.22 0-70.98-32.319-70.98-72.209a72.6 72.6 0 0 1 6.37-29.907 71.5 71.5 0 0 1 18.06-24.491l-30.18-53.172c-32.843 24.159-54.14 63.273-54.14 107.57 0 73.439 58.6 132.89 130.85 132.89s130.79-59.518 130.79-132.89c.01-44.297-21.42-83.54-54.26-107.698"/><path fill="#6ec05d" d="M1115.65 137.927c-.08 6.733-2.77 13.163-7.48 17.896-4.72 4.734-11.08 7.388-17.71 7.388s-12.99-2.654-17.71-7.388c-4.72-4.733-7.4-11.163-7.48-17.896V25.708C1065.26 11.528 1076.55 0 1090.45 0c3.32.004 6.6.673 9.66 1.968a25.2 25.2 0 0 1 8.19 5.578 25.6 25.6 0 0 1 5.45 8.338 26 26 0 0 1 1.9 9.824z"/></svg>
